www/images/pivot2@2x.svg

<svg fill="none" height="55" viewBox="0 0 55 55" width="55" xmlns="http://www.w3.org/2000/svg"><path d="m22.066 18.15c-.0663-.087-.1492-.1599-.244-.2146-.0947-.0546-.1994-.0899-.3079-.1037s-.2187-.0059-.3241.0232c-.1054.0292-.204.079-.29.1466l-.99.7975c.066-.2017.1394-.3997.22-.594.5785-1.4067 1.5293-2.6292 2.7502-3.5362 1.221-.907 2.666-1.4643 4.1798-1.6118l-1.21 1.0285c-.0823.0722-.1496.16-.198.2582-.0485.0982-.0771.2051-.0842.3144-.0072.1093.0073.2189.0425.3226s.0905.1995.1627.2818c.0723.0823.16.1496.2582.1981.0983.0484.2051.077.3144.0842.1093.0071.2189-.0073.3226-.0425.1037-.0353.1995-.0906.2818-.1628l2.695-2.3045c.1539-.1462.2455-.3462.2558-.5582.0102-.2121-.0617-.4199-.2008-.5803l-2.2-2.75c-.1371-.17066-.3364-.27987-.554-.30359-.2177-.02373-.4358.03998-.6065.17709-.1706.13712-.2798.33642-.3036.55406-.0237.21763.04.43574.1771.60644l.979 1.2155c-2.1158.1524-4.1295.9695-5.7533 2.3346-1.6238 1.365-2.7748 3.2082-3.2887 5.2664l-1.1605-1.353c-.1472-.1392-.3405-.2194-.5431-.2253-.2025-.0058-.4002.0631-.5552.1936-.155.1306-.2565.3136-.2852.5142s.0174.4047.1295.5735l2.3045 2.695c.1397.1627.3373.2646.5509.2841.2135.0195.4263-.0449.5931-.1796l2.75-2.2c.1684-.136.2766-.3327.3013-.5477.0247-.2151-.0361-.4312-.1693-.6018z" fill="#000"/><path d="m39.1545 27.445-.1045-.033c-.3283-.1327-.6799-.1982-1.034-.1925.1977-.6297.1514-1.3107-.1298-1.9078-.2813-.5971-.7768-1.0666-1.3882-1.3152-.4553-.1824-.9525-.2339-1.4355-.1485-.0612-.4537-.2416-.8831-.5227-1.2444-.2812-.3614-.653-.6417-1.0778-.8126-.3198-.129-.6617-.1944-1.0065-.1925l1.353-3.3495c.2621-.6494.2572-1.3761-.0137-2.0219s-.7858-1.1585-1.4328-1.4266c-.3236-.1309-.6697-.1967-1.0188-.1937-.349.003-.694.0747-1.0152.2111-.3213.1364-.6126.3347-.8572.5837s-.4377.5437-.5683.8674l-3.729 9.031-.0385-.2035c.0019-.0311.0019-.0624 0-.0935-.1074-.3347-.2815-.6443-.5116-.9101-.2302-.2657-.5117-.4822-.8277-.6363-.316-.1542-.6599-.2428-1.011-.2606-.3512-.0178-.7023.0356-1.0322.157-.6166.2207-1.1281.6645-1.4336 1.2439-.3055.5793-.3827 1.2521-.2164 1.8856l2.024 10.67-1.419 3.5145c-.0447.1019-.0682.2118-.0693.323-.0011.1113.0203.2216.0629.3244.0427.1027.1057.1958.1852.2736.0796.0778.174.1387.2777.179l10.1145 4.0865c.0978.0398.2024.0604.308.0605.1644-.0002.3251-.0495.4613-.1416s.2418-.2228.3032-.3754l1.4135-3.498 3.047-1.947c.1436-.0922.2551-.2268.319-.385l3.487-8.6295c.1309-.3236.1967-.6697.1937-1.0187-.003-.3491-.0747-.6941-.2111-1.0153-.1364-.3213-.3347-.6126-.5837-.8572-.249-.2445-.5437-.4377-.8674-.5683zm-.066 2.838-3.388 8.3875-3.047 1.947c-.1436.0923-.2551.2268-.319.385l-1.199 2.9975-8.5855-3.487 1.199-2.9755c.0589-.1465.0742-.307.044-.462l-2.0735-10.945s0-.0495 0-.0715c-.0662-.2334-.0418-.4833.0684-.6995.1101-.2162.2978-.3828.5256-.4665.2357-.0879.4965-.0795.7261.0234.2295.103.4093.2921.5004.5266l.55 2.915c.0341.1741.1235.3326.2549.4519.1314.1194.2977.1931.4743.2104s.3541-.0228.5061-.1144c.152-.0915.2704-.2297.3377-.3939l4.7245-11.6875c.1012-.2434.2939-.4373.5366-.5402.2427-.1028.5161-.1063.7614-.0098.2461.1012.4421.2957.5451.541.1031.2453.1049.5214.0049.768l-3.7455 9.3115c-.06.1981-.0433.4115.0468.5979.09.1864.2468.3321.4393.4083.1924.0761.4065.0772.5997.0028.1932-.0743.3514-.2185.4432-.404l1.4795-3.6575c.1024-.2425.2952-.4355.5375-.5382s.5151-.1069.7605-.0118c.2461.1012.4421.2957.5451.541.1031.2453.1049.5214.0049.768l-1.4465 3.6685c-.0422.1124-.0593.2326-.0503.3523.0091.1197.0442.236.1028.3408.0587.1047.1395.1954.2368.2657s.2088.1185.3267.1412h.033.121c.0689-.0024.1373-.0135.2035-.033h.055c.0598-.0209.117-.0486.1705-.0825.0572-.0409.109-.089.154-.143l.033-.044c.0472-.0585.0861-.1233.1155-.1925l1.1385-2.816c.1012-.2434.2939-.4373.5366-.5402.2427-.1028.5161-.1064.7614-.0098.2461.1012.4421.2957.5451.541.1031.2453.1049.5214.0049.768l-1.5675 3.982c-.0461.1014-.0712.2111-.0738.3224-.0025.1114.0175.2221.0588.3255.0414.1034.1033.1974.1819.2762.0787.0789.1725.141.2758.1826s.214.0619.3254.0596c.1113-.0023.221-.0271.3225-.073.1015-.0458.1927-.1118.2681-.1938.0753-.082.1332-.1785.1703-.2835l.352-.869v-.033l.4125-1.023c.1012-.2461.2957-.4421.541-.5451.2453-.1031.5214-.1049.768-.0049l.088.0385c.2461.1012.4421.2957.5452.541.103.2453.1048.5214.0048.768z" fill="#000"/><path d="m39.0885 30.283-3.388 8.3875-3.047 1.947c-.1436.0923-.2551.2268-.319.385l-1.199 2.9975-8.5855-3.487 1.199-2.9755c.0589-.1465.0742-.307.044-.462l-2.0735-10.945s0-.0495 0-.0715c-.0662-.2334-.0418-.4833.0684-.6995.1101-.2162.2978-.3828.5256-.4665.2357-.0879.4965-.0795.7261.0234.2295.103.4093.2921.5004.5266l.55 2.915c.0341.1741.1235.3326.2549.4519.1314.1194.2977.1931.4743.2104s.3541-.0228.5061-.1144c.152-.0915.2704-.2297.3377-.3939l4.7245-11.6875c.1012-.2434.2939-.4373.5366-.5402.2427-.1028.5161-.1063.7614-.0098.2461.1012.4421.2957.5451.541.1031.2453.1049.5214.0049.768l-3.7455 9.3115c-.06.1981-.0433.4115.0468.5979.09.1864.2468.3321.4393.4083.1924.0761.4065.0772.5997.0028.1932-.0743.3514-.2185.4432-.404l1.4795-3.6575c.1024-.2425.2952-.4355.5375-.5382s.5151-.1069.7605-.0118c.2461.1012.4421.2957.5451.541.1031.2453.1049.5214.0049.768l-1.4465 3.6685c-.0422.1124-.0593.2326-.0503.3523.0091.1197.0442.236.1028.3408.0587.1047.1395.1954.2368.2657s.2088.1185.3267.1412h.033.121c.0689-.0024.1373-.0135.2035-.033h.055c.0598-.0209.117-.0486.1705-.0825.0572-.0409.109-.089.154-.143l.033-.044c.0472-.0585.0861-.1233.1155-.1925l1.1385-2.816c.1012-.2434.2939-.4373.5366-.5402.2427-.1028.5161-.1064.7614-.0098.2461.1012.4421.2957.5451.541.1031.2453.1049.5214.0049.768l-1.5675 3.982c-.0461.1014-.0712.2111-.0738.3224-.0025.1114.0175.2221.0588.3255.0414.1034.1033.1974.1819.2762.0787.0789.1725.141.2758.1826s.214.0619.3254.0596c.1113-.0023.221-.0271.3225-.073.1015-.0458.1927-.1118.2681-.1938.0753-.082.1332-.1785.1703-.2835l.352-.869v-.033l.4125-1.023c.1012-.2461.2957-.4421.541-.5451.2453-.1031.5214-.1049.768-.0049l.088.0385c.2461.1012.4421.2957.5452.541.103.2453.1048.5214.0048.768z" fill="#fff"/></svg>

<svg width="55" height="55" viewBox="0 0 55 55" fill="none" xmlns="http://www.w3.org/2000/svg">
<path d="M22.066 18.15C21.9997 18.063 21.9168 17.9901 21.822 17.9354C21.7273 17.8808 21.6226 17.8455 21.5141 17.8317C21.4056 17.8179 21.2954 17.8258 21.19 17.8549C21.0846 17.8841 20.986 17.9339 20.9 18.0015L19.91 18.799C19.976 18.5973 20.0494 18.3993 20.13 18.205C20.7085 16.7983 21.6593 15.5758 22.8802 14.6688C24.1012 13.7618 25.5462 13.2045 27.06 13.057L25.85 14.0855C25.7677 14.1577 25.7004 14.2455 25.652 14.3437C25.6035 14.4419 25.5749 14.5488 25.5678 14.6581C25.5606 14.7674 25.5751 14.877 25.6103 14.9807C25.6455 15.0844 25.7008 15.1802 25.773 15.2625C25.8453 15.3448 25.933 15.4121 26.0312 15.4606C26.1295 15.509 26.2363 15.5376 26.3456 15.5448C26.4549 15.5519 26.5645 15.5375 26.6682 15.5023C26.7719 15.467 26.8677 15.4117 26.95 15.3395L29.645 13.035C29.7989 12.8888 29.8905 12.6888 29.9008 12.4768C29.911 12.2647 29.8391 12.0569 29.7 11.8965L27.5 9.1465C27.3629 8.97584 27.1636 8.86663 26.946 8.84291C26.7283 8.81918 26.5102 8.88289 26.3395 9.02C26.1689 9.15712 26.0597 9.35642 26.0359 9.57406C26.0122 9.79169 26.0759 10.0098 26.213 10.1805L27.192 11.396C25.0762 11.5484 23.0625 12.3655 21.4387 13.7306C19.8149 15.0956 18.6639 16.9388 18.15 18.997L16.9895 17.644C16.8423 17.5048 16.649 17.4246 16.4464 17.4187C16.2439 17.4129 16.0462 17.4818 15.8912 17.6123C15.7362 17.7429 15.6347 17.9259 15.606 18.1265C15.5773 18.3271 15.6234 18.5312 15.7355 18.7L18.04 21.395C18.1797 21.5577 18.3773 21.6596 18.5909 21.6791C18.8044 21.6986 19.0172 21.6342 19.184 21.4995L21.934 19.2995C22.1024 19.1635 22.2106 18.9668 22.2353 18.7518C22.26 18.5367 22.1992 18.3206 22.066 18.15Z" fill="black"/>
<path d="M39.1545 27.445L39.05 27.412C38.7217 27.2793 38.3701 27.2138 38.016 27.2195C38.2137 26.5898 38.1674 25.9088 37.8862 25.3117C37.6049 24.7146 37.1094 24.2451 36.498 23.9965C36.0427 23.8141 35.5455 23.7626 35.0625 23.848C35.0013 23.3943 34.8209 22.9649 34.5398 22.6036C34.2586 22.2422 33.8868 21.9619 33.462 21.791C33.1422 21.662 32.8003 21.5966 32.4555 21.5985L33.8085 18.249C34.0706 17.5996 34.0657 16.8729 33.7948 16.2271C33.5239 15.5813 33.009 15.0686 32.362 14.8005C32.0384 14.6696 31.6923 14.6038 31.3432 14.6068C30.9942 14.6098 30.6492 14.6815 30.328 14.8179C30.0067 14.9543 29.7154 15.1526 29.4708 15.4016C29.2262 15.6506 29.0331 15.9453 28.9025 16.269L25.1735 25.3L25.135 25.0965C25.1369 25.0654 25.1369 25.0341 25.135 25.003C25.0276 24.6683 24.8535 24.3587 24.6234 24.0929C24.3932 23.8272 24.1117 23.6107 23.7957 23.4566C23.4797 23.3024 23.1358 23.2138 22.7847 23.196C22.4335 23.1782 22.0824 23.2316 21.7525 23.353C21.1359 23.5737 20.6244 24.0175 20.3189 24.5969C20.0134 25.1762 19.9362 25.849 20.1025 26.4825L22.1265 37.1525L20.7075 40.667C20.6628 40.7689 20.6393 40.8788 20.6382 40.99C20.6371 41.1013 20.6585 41.2116 20.7011 41.3144C20.7438 41.4171 20.8068 41.5102 20.8863 41.588C20.9659 41.6658 21.0603 41.7267 21.164 41.767L31.2785 45.8535C31.3763 45.8933 31.4809 45.9139 31.5865 45.914C31.7509 45.9138 31.9116 45.8645 32.0478 45.7724C32.184 45.6803 32.2896 45.5496 32.351 45.397L33.7645 41.899L36.8115 39.952C36.9551 39.8598 37.0666 39.7252 37.1305 39.567L40.6175 30.9375C40.7484 30.6139 40.8142 30.2678 40.8112 29.9188C40.8082 29.5697 40.7365 29.2247 40.6001 28.9035C40.4637 28.5822 40.2654 28.2909 40.0164 28.0463C39.7674 27.8018 39.4727 27.6086 39.149 27.478L39.1545 27.445ZM39.0885 30.283L35.7005 38.6705L32.6535 40.6175C32.5099 40.7098 32.3984 40.8443 32.3345 41.0025L31.1355 44L22.55 40.513L23.749 37.5375C23.8079 37.391 23.8232 37.2305 23.793 37.0755L21.7195 26.1305C21.7195 26.1305 21.7195 26.081 21.7195 26.059C21.6533 25.8256 21.6777 25.5757 21.7879 25.3595C21.898 25.1433 22.0857 24.9767 22.3135 24.893C22.5492 24.8051 22.81 24.8135 23.0396 24.9164C23.2691 25.0194 23.4489 25.2085 23.54 25.443L24.09 28.358C24.1241 28.5321 24.2135 28.6906 24.3449 28.8099C24.4763 28.9293 24.6426 29.003 24.8192 29.0203C24.9958 29.0376 25.1733 28.9975 25.3253 28.9059C25.4773 28.8144 25.5957 28.6762 25.663 28.512L30.3875 16.8245C30.4887 16.5811 30.6814 16.3872 30.9241 16.2843C31.1668 16.1815 31.4402 16.178 31.6855 16.2745C31.9316 16.3757 32.1276 16.5702 32.2306 16.8155C32.3337 17.0608 32.3355 17.3369 32.2355 17.5835L28.49 26.895C28.43 27.0931 28.4467 27.3065 28.5368 27.4929C28.6268 27.6793 28.7836 27.825 28.9761 27.9012C29.1685 27.9773 29.3826 27.9784 29.5758 27.904C29.769 27.8297 29.9272 27.6855 30.019 27.5L31.4985 23.8425C31.6009 23.6 31.7937 23.407 32.036 23.3043C32.2783 23.2016 32.5511 23.1974 32.7965 23.2925C33.0426 23.3937 33.2386 23.5882 33.3416 23.8335C33.4447 24.0788 33.4465 24.3549 33.3465 24.6015L31.9 28.27C31.8578 28.3824 31.8407 28.5026 31.8497 28.6223C31.8588 28.742 31.8939 28.8583 31.9525 28.9631C32.0112 29.0678 32.092 29.1585 32.1893 29.2288C32.2866 29.2991 32.3981 29.3473 32.516 29.37H32.549H32.67C32.7389 29.3676 32.8073 29.3565 32.8735 29.337H32.9285C32.9883 29.3161 33.0455 29.2884 33.099 29.2545C33.1562 29.2136 33.208 29.1655 33.253 29.1115L33.286 29.0675C33.3332 29.009 33.3721 28.9442 33.4015 28.875L34.54 26.059C34.6412 25.8156 34.8339 25.6217 35.0766 25.5188C35.3193 25.416 35.5927 25.4124 35.838 25.509C36.0841 25.6102 36.2801 25.8047 36.3831 26.05C36.4862 26.2953 36.488 26.5714 36.388 26.818L34.8205 30.8C34.7744 30.9014 34.7493 31.0111 34.7467 31.1224C34.7442 31.2338 34.7642 31.3445 34.8055 31.4479C34.8469 31.5513 34.9088 31.6453 34.9874 31.7241C35.0661 31.803 35.1599 31.8651 35.2632 31.9067C35.3665 31.9483 35.4772 31.9686 35.5886 31.9663C35.6999 31.964 35.8096 31.9392 35.9111 31.8933C36.0126 31.8475 36.1038 31.7815 36.1792 31.6995C36.2545 31.6175 36.3124 31.521 36.3495 31.416L36.7015 30.547V30.514L37.114 29.491C37.2152 29.2449 37.4097 29.0489 37.655 28.9459C37.9003 28.8428 38.1764 28.841 38.423 28.941L38.511 28.9795C38.7571 29.0807 38.9531 29.2752 39.0562 29.5205C39.1592 29.7658 39.161 30.0419 39.061 30.2885L39.0885 30.283Z" fill="black"/>
<path d="M39.0885 30.283L35.7005 38.6705L32.6535 40.6175C32.5099 40.7098 32.3984 40.8443 32.3345 41.0025L31.1355 44L22.55 40.513L23.749 37.5375C23.8079 37.391 23.8232 37.2305 23.793 37.0755L21.7195 26.1305C21.7195 26.1305 21.7195 26.081 21.7195 26.059C21.6533 25.8256 21.6777 25.5757 21.7879 25.3595C21.898 25.1433 22.0857 24.9767 22.3135 24.893C22.5492 24.8051 22.81 24.8135 23.0396 24.9164C23.2691 25.0194 23.4489 25.2085 23.54 25.443L24.09 28.358C24.1241 28.5321 24.2135 28.6906 24.3449 28.8099C24.4763 28.9293 24.6426 29.003 24.8192 29.0203C24.9958 29.0376 25.1733 28.9975 25.3253 28.9059C25.4773 28.8144 25.5957 28.6762 25.663 28.512L30.3875 16.8245C30.4887 16.5811 30.6814 16.3872 30.9241 16.2843C31.1668 16.1815 31.4402 16.178 31.6855 16.2745C31.9316 16.3757 32.1276 16.5702 32.2306 16.8155C32.3337 17.0608 32.3355 17.3369 32.2355 17.5835L28.49 26.895C28.43 27.0931 28.4467 27.3065 28.5368 27.4929C28.6268 27.6793 28.7836 27.825 28.9761 27.9012C29.1685 27.9773 29.3826 27.9784 29.5758 27.904C29.769 27.8297 29.9272 27.6855 30.019 27.5L31.4985 23.8425C31.6009 23.6 31.7937 23.407 32.036 23.3043C32.2783 23.2016 32.5511 23.1974 32.7965 23.2925C33.0426 23.3937 33.2386 23.5882 33.3416 23.8335C33.4447 24.0788 33.4465 24.3549 33.3465 24.6015L31.9 28.27C31.8578 28.3824 31.8407 28.5026 31.8497 28.6223C31.8588 28.742 31.8939 28.8583 31.9525 28.9631C32.0112 29.0678 32.092 29.1585 32.1893 29.2288C32.2866 29.2991 32.3981 29.3473 32.516 29.37H32.549H32.67C32.7389 29.3676 32.8073 29.3565 32.8735 29.337H32.9285C32.9883 29.3161 33.0455 29.2884 33.099 29.2545C33.1562 29.2136 33.208 29.1655 33.253 29.1115L33.286 29.0675C33.3332 29.009 33.3721 28.9442 33.4015 28.875L34.54 26.059C34.6412 25.8156 34.8339 25.6217 35.0766 25.5188C35.3193 25.416 35.5927 25.4124 35.838 25.509C36.0841 25.6102 36.2801 25.8047 36.3831 26.05C36.4862 26.2953 36.488 26.5714 36.388 26.818L34.8205 30.8C34.7744 30.9014 34.7493 31.0111 34.7467 31.1224C34.7442 31.2338 34.7642 31.3445 34.8055 31.4479C34.8469 31.5513 34.9088 31.6453 34.9874 31.7241C35.0661 31.803 35.1599 31.8651 35.2632 31.9067C35.3665 31.9483 35.4772 31.9686 35.5886 31.9663C35.6999 31.964 35.8096 31.9392 35.9111 31.8933C36.0126 31.8475 36.1038 31.7815 36.1792 31.6995C36.2545 31.6175 36.3124 31.521 36.3495 31.416L36.7015 30.547V30.514L37.114 29.491C37.2152 29.2449 37.4097 29.0489 37.655 28.9459C37.9003 28.8428 38.1764 28.841 38.423 28.941L38.511 28.9795C38.7571 29.0807 38.9531 29.2752 39.0562 29.5205C39.1592 29.7658 39.161 30.0419 39.061 30.2885L39.0885 30.283Z" fill="white"/>
</svg>
